Numix-Light/scalable/categories/preferences-system-symbolic-old.svg

<?xml version="1.0" encoding="UTF-8" standalone="no"?>
<svg
   xmlns:dc="http://purl.org/dc/elements/1.1/"
   xmlns:cc="http://creativecommons.org/ns#"
   xmlns:rdf="http://www.w3.org/1999/02/22-rdf-syntax-ns#"
   xmlns:svg="http://www.w3.org/2000/svg"
   xmlns="http://www.w3.org/2000/svg"
   xmlns:sodipodi="http://sodipodi.sourceforge.net/DTD/sodipodi-0.dtd"
   xmlns:inkscape="http://www.inkscape.org/namespaces/inkscape"
   width="16"
   viewBox="0 0 16 16"
   height="16"
   id="svg124"
   version="1.1"
   inkscape:version="0.91 r"
   sodipodi:docname="preferences-system-symbolic-old.svg">
  <metadata
     id="metadata144">
    <rdf:RDF>
      <cc:Work
         rdf:about="">
        <dc:format>image/svg+xml</dc:format>
        <dc:type
           rdf:resource="http://purl.org/dc/dcmitype/StillImage" />
      </cc:Work>
    </rdf:RDF>
  </metadata>
  <defs
     id="defs142" />
  <sodipodi:namedview
     pagecolor="#ffffff"
     bordercolor="#666666"
     borderopacity="1"
     objecttolerance="10"
     gridtolerance="10"
     guidetolerance="10"
     inkscape:pageopacity="0"
     inkscape:pageshadow="2"
     inkscape:window-width="640"
     inkscape:window-height="480"
     id="namedview140" />
  <g
     style="fill:#353535"
     id="g126">
    <path
       xml:space="default"
       d="m 7.25,0 0,16 1.5,0 0,-16 z"
       id="path128" />
    <path
       xml:space="default"
       d="M 10.5,12.5 C 10.5,13.328428 9.380712,14 8,14 6.6192883,14 5.5,13.328428 5.5,12.5 5.5,11.671574 6.6192883,11 8,11 c 1.380712,0 2.5,0.671574 2.5,1.5 z"
       id="path130" />
    <path
       xml:space="default"
       d="m 3.2500001,15 0,-14 -1.5,0 0,14 z"
       id="path132" />
    <path
       xml:space="default"
       d="M 5.0000001,5.5 C 5.0000001,6.328428 3.8807122,7 2.5000002,7 1.1192883,7 0,6.328428 0,5.5 0,4.671574 1.1192883,4 2.5000002,4 3.8807122,4 5.0000001,4.671574 5.0000001,5.5 z"
       id="path134" />
    <path
       xml:space="default"
       d="m 14.25,15 0,-14 -1.5,0 0,14 z"
       id="path136" />
    <path
       xml:space="default"
       d="M 16,5.5 C 16,6.3284278 14.880712,7 13.5,7 12.119288,7 11,6.3284278 11,5.5 11,4.671574 12.119288,4 13.5,4 14.880712,4 16,4.671574 16,5.5 z"
       id="path138" />
  </g>
</svg>

<svg xmlns="http://www.w3.org/2000/svg" viewBox="0 0 16 16">
 <g style="fill:#353535">
  <path d="m 7.25 0 0 16 1.5 0 0 -16 z"/>
  <path d="m 10.5 12.5 c 0 0.828 -1.119 1.5 -2.5 1.5 -1.381 0 -2.5 -0.672 -2.5 -1.5 0 -0.828 1.119 -1.5 2.5 -1.5 c 1.381 0 2.5 0.672 2.5 1.5 z"/>
  <path d="m 3.25 15 0 -14 -1.5 0 0 14 z"/>
  <path d="m 5 5.5 c 0 0.828 -1.119 1.5 -2.5 1.5 -1.381 0 -2.5 -0.672 -2.5 -1.5 0 -0.828 1.119 -1.5 2.5 -1.5 1.381 0 2.5 0.672 2.5 1.5 z"/>
  <path d="m 14.25 15 0 -14 -1.5 0 0 14 z"/>
  <path d="m 16 5.5 c 0 0.828 -1.119 1.5 -2.5 1.5 -1.381 0 -2.5 -0.672 -2.5 -1.5 0 -0.828 1.119 -1.5 2.5 -1.5 1.381 0 2.5 0.672 2.5 1.5 z"/>
 </g>
</svg>
